X:27
T:The Last Rose of Summer
% Four-part piano arrangement for standard notation.
C:Thomas Moore/Irish Air "The Groves of Blarney" / Flotow's "Martha"
S:From "The One Hundred and One Best Songs" / The Cable Company / 1919 / Chicago, Illinois
M:3/4
L:1/8
Q:1/4=80
%%staves [(1 2) (3 4)]
%%vocalfont Times-Roman 15
K:Eb
V:1 clef=treble
|:(E > F) | G2 ed c>B | B G3 E>F | (G B2) G F>E | E4 :|
w:1.~'Tis the last rose* of* sum-mer, Left* bloom\-* ing a\-* lone;
w:~~All her love-ly* com\-* pan-ions Are* fad\-* ed and* gone;
w:2.~I'll not leave thee,* thou* lone one, To* pine* on the* stem;
w:~~Since the love-ly* are* sleep-ing, Go* sleep* thou with* them;
w:3.~So* soon may* I* fol-low When* friend\-* ships de\-* cay;
w:~~And from love's shin\-* ing* cir-cle The* gems* drop a\-* way;
V:2 clef=treble
|:(B, > D) | E2 G2 A>G | G E3 E2 | (E G2) E D>E | E4 :|
V:3 clef=bass
%%MIDI transpose -24
%%jsastem=dn
|:(g > a) | b2 b2 e'2 | e' b3 g>a |b3 b a>g | g4 :|
V:4 clef=bass
%%MIDI transpose -24
%%jsastem=dn
|:(e > e) | e2 e2 e2 | e e3 e2 | e3 e B2 | e4 :|
V:1
B>G | (e3 d) c > B | B2 G2 B>G | e2 ed c=B | c2{dc=Bcd}He2
w:No* flow-er of her kin-dred No* rose-bud* is* nigh,*
w:Thus* kind\-* ly I scat-ter Thy* leaves o'er* the* bed*
w:When* true* hearts lie with-ered, And* fond ones* have* flown,*
V:2
E2 | (G3 G) A > G | G2 E2 E2 | E2 GF ED | E2- HE2
V:3
g>b | (b3 b) e' > e' | e'2 b2 g2 | g2 g2 g2 | g2- Hg2
V:4
e2 | (e3 e) e > e | e2 e2 e2 | c2 c2 G2 | c2- Hc2
V:1
(E > F) | G2 ed c>B | B G3 E>F | (G B2 G) F > E | E4 |]
w:To re-flect back* her* blush-es, Or* give** sigh for sigh.
w:Where thy mates of* the* gar-den Lie* scent\-** less and dead.
w:Oh,* who would* in\-* hab-it This* bleak** world a-lone!
V:2
(B, > D) | E2 G2 A>G | G E3 E2 | (E G2 E) D > E | E4 |]
V:3
(g > a) | b2 b2 e'2 | e' b3 g>a | b4 a > g | g4 |]
V:4
(e > e) | e2 e2 e2 | e e3 e2 | e4 B > e | e4 |]

